!!!COM: Mozart, Wolfgang Amadeus
!!!CDT: 1756/01/27/-1791/12/05/
!!!CNT: German
!!!OTL: Piano Sonata No. 2 in C major
!!!SCT1: K<sup>1</sup> 330
!!!SCT2: K<sup>6</sup> 300h
!!!OMV: Mvmt. 3
!!!OMD: Allegretto
!!!ODT: 1782///
**kern	**kern	**dynam
*staff2	*staff1	*staff1/2
*>[A,A,B,B]	*>[A,A,B,B]	*>[A,A,B,B]
*>norep[A,B]	*>norep[A,B]	*>norep[A,B]
*>A	*>A	*>A
*clefF4	*clefG2	*clefG2
*k[]	*k[]	*k[]
*C:	*C:	*C:
*M2/4	*M2/4	*M2/4
*MM112	*MM112	*MM112
=1-	=1-	=1-
8r	(8.eeL	.
8CL	.	.
.	32ffLL	.
.	32ggJJJ	.
8E	8ccL)	.
8GJ	8b' 8dd'J	.
=2	=2	=2
*	*^	*
8cL	(8ddL	8bL	.
8CJ	16ffL	8ccJ	.
.	16eeJJ)	.	.
8GL	4ryy	4b 4dd	.
8GGJ	.	.	.
*	*v	*v	*
=3	=3	=3
8r	(8.eeL	.
8CL	.	.
.	32ffLL	.
.	32ggJJJ	.
8E	8ccL)	.
8GJ	8b' 8dd'J	.
=4	=4	=4
8cL	(8dd 8ffL	.
8CJ	8cc 8eeTJ)	.
8GL	4b 4dd	.
8GGJ	.	.
=5	=5	=5
(8AL	(8.ffL	.
8c	.	.
.	32ggLL	.
.	32ffJJJ	.
8G	8eeL	.
8cJ	8ee'J)	.
=6	=6	=6
8FL	(8.aaL	.
8c	.	.
.	32bbLL	.
.	32cccJJJ	.
8E	8ggL)	.
8cJ)	8gg'J	.
*clefG2	*	*
=7	=7	=7
8r	(16ggLL	.
.	16ff)	.
8B 8g	(16ff	.
.	16ddJJ)	.
8r	(16ffLL	.
.	16ee)	.
8c 8g	(16ee	.
.	16ccJJ)	.
*clefF4	*	*
=8	=8	=8
4G 4B	(16cc#LL	.
.	16dd	.
.	16ee	.
.	16ddJJ	.
4r	16ccnLL<	.
.	16b	.
.	16a	.
.	16gJJ)	.
=9	=9	=9
(>16CCLL	(8.eeL	.
16EE	.	.
16GG	.	.
16CJJ	32ffLL	.
.	32ggJJJ	.
16EELL	8ccL)	.
16E	.	.
16GG	8b' 8dd'J	.
16GJJ	.	.
=10	=10	=10
*	*^	*
16CLL	(8ddL	8bL	.
16E	.	.	.
16G	16ffL	8ccJ	.
16cJJ	16eeJJ)	.	.
16GGLL	4ryy	4b 4dd	.
16BB	.	.	.
16D	.	.	.
16GJJ)	.	.	.
*	*v	*v	*
=11	=11	=11
(>16CCLL	(8.eeL	.
16EE	.	.
16GG	.	.
16CJJ	32ffLL	.
.	32ggJJJ	.
16EELL	8ccL)	.
16E	.	.
16GG	8b' 8dd'J	.
16GJJ	.	.
=12	=12	=12
16CLL	8dd (8ffL	.
16E	.	.
16G	8cc 8eeTJ)	.
16cJJ	.	.
16GGLL	4b 4dd	.
16BB	.	.
16D	.	.
16GJJ)	.	.
=13	=13	=13
(16ALL	(8.ffL	.
16c	.	.
16A	.	.
16cJJ	32ggLL	.
.	32ffJJJ	.
16GLL	8eeL)	.
16c	.	.
16G	8ee'J	.
16cJJ	.	.
=14	=14	=14
16FLL	(8.aaL	.
16c	.	.
16F	.	.
16cJJ	32bbLL	.
.	32cccJJJ	.
16ELL	8ggL)	.
16c	.	.
16E	8gg'J	.
16cJJ)	.	.
=15	=15	=15
*^	*	*
8r	8ryy	(16gg#LL	.
.	.	16aa	.
(8d	8F	16ff	.
.	.	16ddJJ	.
8eL	4G	8ccL	.
8dJ)	.	8bJ)	.
*v	*v	*	*
=16	=16	=16
!	!LO:TX:b:i:t=legato	!
4c 4e	24ccLL	.
.	24g	.
.	24eeJJ	.
.	24ccLL	.
.	24gg	.
.	24eeJJ	.
*	*Xtuplet	*
4r	24cccLL	.
.	24bb	.
.	24aaJJ	.
.	24ggLL	.
.	24ff	.
.	24eeJJ	.
=17	=17	=17
*^	*	*
8r	8ryy	24cc#LL	.
.	.	24dd	.
.	.	24ffJJ	.
8A 8d	8F	24aaLL	.
.	.	24ff	.
.	.	24ddJJ	.
8c (8eL	4G	24ggLL	.
.	.	24ee	.
.	.	24ccnJJ	.
8d 8fJ)	.	24ffLL	.
.	.	24dd	.
.	.	24bJJ	.
*v	*v	*	*
=18	=18	=18
4c 4e	24ccLL	.
.	24g	.
.	24eeJJ	.
.	24ccLL	.
.	24gg	.
.	24eeJJ	.
4r	24cccLL	.
.	24bb	.
.	24aaJJ	.
.	24ggLL	.
.	24ff	.
.	24eeJJ	.
=19	=19	=19
*^	*	*
8r	8ryy	24cc#LL	.
.	.	24dd	.
.	.	24ffJJ	.
8A 8d	8F	24aaLL	.
.	.	24ff	.
.	.	24ddJJ	.
8c (8eL	4G	24ggLL	.
.	.	24ee	.
.	.	24ccnJJ	.
8d 8fJ)	.	24ffLL	.
.	.	24dd	.
.	.	24bJJ	.
*v	*v	*	*
=20	=20	=20
8c 8eL	8ccL	.
8G'J	8g'J	.
4CC 4C	4c	.
*clefG2	*	*
=21	=21	=21
!LO:TX:b:i:t=legato	!	!
16cLL	(4.ee	.
16g	.	.
16f#	.	.
16gJJ	.	.
16cLL	.	.
16g	.	.
.	32ffqLLL>	.
.	32eeq	.
.	32ddq	.
.	32eeqJJJ	.
16d	16ggLL	.
16gJJ	16ffJJ	.
=22	=22	=22
16eLL	16eeLL	.
16g	16dd	.
16fn	16cc	.
16gJJ	16bJJ	.
16eLL	8cc'L)	.
16g	.	.
16A#	8cc#'J	.
16gJJ	.	.
=23	=23	=23
16BLL	8dd'L	.
16g	.	.
16B	8dd#'	.
16gJJ	.	.
16cLL	8ee'J	.
16g	.	.
16d	(16ggLL	.
16gJJ	16ffJJ)	.
=24	=24	=24
16cLL	(8.eeL	.
16g	.	.
16f#	.	.
16gJJ	32ffLL	.
.	32eeJJJ	.
16BLL	8ddn)	.
16g	.	.
16f#	8r	.
16gJJ	.	.
=25	=25	=25
16BLL	(4.ff	.
16g	.	.
16f#	.	.
16gJJ	.	.
16BLL	.	.
16g	.	.
.	32ggqLL>	.
.	32ffq	.
.	32eeq	.
.	32ffqJJ	.
16c	16aaLL	.
16gJJ	16ggJJ	.
=26	=26	=26
16dLL	16ffLL	.
16g	16ee	.
16e	16dd	.
16gJJ	16ccJJ	.
16fnLL	16bLL)	.
16g	16cc'	.
16d	16dd'	.
16gJJ	16ee'JJ	.
=27	=27	=27
16BLL	16ff'LL	.
16g	16gg'	.
16d	16aa'	.
16gJJ	16bb'JJ	.
16BLL	16ccc'LL	.
16g	16ddd'	.
16G	16eee'	.
16gJJ	16fff'JJ	.
=28	=28	=28
16cLL	(4ddd#	.
16g	.	.
16e	.	.
16gJJ	.	.
16cLL	8eee)	.
16g	.	.
16e	8r	.
16gJJ	.	.
=29	=29	=29
*	*tuplet	*
(24cLL	([8eeL	.
24e	.	.
24aJ	.	.
8ccJ)	24eeL]	.
.	24aa	.
.	24cccJJ	.
4r	24eeeLL	.
.	24ccc	.
.	24aaJJ	.
.	24cccLL	.
.	24aa	.
.	24eeJJ)	.
=30	=30	=30
*	*Xtuplet	*
(24BLL	([8ddL	.
24d	.	.
24gJ	.	.
8bJ)	24ddL]	.
.	24gg	.
.	24bbJJ	.
4r	24dddLL	.
.	24bb	.
.	24ggJJ	.
.	24bbLL	.
.	24gg	.
.	24ddJJ)	.
*clefF4	*	*
=31	=31	=31
8F# 8A 8d	24r	.
.	(24ddLL	.
.	24aaJJ	.
8r	24cccLL	.
.	24aa	.
.	24ddJJ)	.
8G 8B 8d	24r	.
.	(24ddLL	.
.	24ggJJ	.
8r	24bbLL	.
.	24gg	.
.	24ddJJ)	.
=32	=32	=32
(16DLL	(16.aaLL	.
16d	.	.
.	32ff#Jk	.
16c#	8ddJ)	.
16dJJ	.	.
16c#LL	4r	.
16d	.	.
16cn	.	.
16dJJ)	.	.
=33	=33	=33
.	32gqq	.
(16BLL	([4gg	.
16d	.	.
16G	.	.
16dJJ	.	.
16BLL	16ggLL]	.
16d	16ff#	.
16G	16ee	.
16dJJ	16ddJJ)	.
=34	=34	=34
16ALL	(16ddLL	.
16d	16cc	.
16G	16b	.
16dJJ	16aJJ	.
16F#LL	8dd'L)	.
16d	.	.
16D	8cc'J	.
16dJJ)	.	.
=35	=35	=35
(16GLL	(8a#L	.
16d	.	.
16c#	8bJ)	.
16dJJ	.	.
16c#LL	4r	.
16d	.	.
16e	.	.
16dJJ	.	.
=36	=36	=36
16cnLL	2r	.
16d	.	.
16B	.	.
16dJJ	.	.
16cLL	.	.
16d	.	.
16A	.	.
16dJJ)	.	.
=37	=37	=37
.	32gqq	.
(16BLL	([4gg	.
16d	.	.
16G	.	.
16dJJ	.	.
16BLL	16ggLL]	.
16d	16ff#	.
16G	16ee	.
16dJJ	16ddJJ)	.
=38	=38	=38
16ALL	(16ddLL	.
16d	16cc	.
16G	16b	.
16dJJ	16aJJ	.
16F#LL	8dd'L)	.
16d	.	.
16D	8cc'J	.
16dJJ)	.	.
=39	=39	=39
!LO:TX:b:i:t=legato	!	!
16GLL	8b'	.
16d	.	.
16B	8r	.
16dJJ	.	.
16GLL	(16.eeTLL	.
16e	.	.
.	32ff#k	.
16c	16gg)	.
16eJJ	16gg'JJ	.
=40	=40	=40
16GLL	8gg	.
16d	.	.
16B	8r	.
16dJJ	.	.
16FnLL	(16.aaTLL	.
16c	.	.
.	32bbk	.
16A	16ccc)	.
16cJJ	16ccc'JJ	.
=41	=41	=41
16ELL	8ccc	.
16c	.	.
16G	8r	.
16cJJ	.	.
16CLL	(16.cccTLL	.
16G	.	.
.	32dddk	.
16E	16eee)	.
16GJJ	16eee'JJ	.
=42	=42	=42
16DLL	(16eeeLL	.
16B	16ddd)	.
16G	16ccc'	.
16BJJ	16bb'JJ	.
16DLL	8aa'L	.
16c	.	.
16F#	8ddd'J	.
16cJJ	.	.
=43	=43	=43
16GLL	(8cccL	.
16d	.	.
16B	8bbJ)	.
16dJJ	.	.
16GLL	(16.eeTLL	.
16e	.	.
.	32ff#k	.
16c	16gg)	.
16eJJ	16gg'JJ	.
=44	=44	=44
16GLL	8gg	.
16d	.	.
16B	8r	.
16dJJ	.	.
16FnLL	(16.aaTLL	.
16c	.	.
.	32bbk	.
16A	16ccc)	.
16cJJ	16cccJJ	.
=45	=45	=45
16ELL	8ccc	.
16c	.	.
16G	8r	.
16cJJ	.	.
16CLL	(16.cccTLL	.
16G	.	.
.	32dddk	.
16E	16eee)	.
16GJJ	16eee'JJ	.
=46	=46	=46
16DLL	(16eeeLL	.
16B	16ddd)	.
16G	16ccc'	.
16BJJ	16bb'JJ	.
16DLL	(16bbLL	.
16c	16aa)	.
16A	16gg'	.
16cJJ	16ff#'JJ	.
=47	=47	=47
*	*tuplet	*
8r	([8dddL	.
8G (8BL	24dddL]	.
.	24bb	.
.	24ggJJ	.
8A 8c	24ff#LL	.
.	24aa	.
.	24ddJJ	.
*	*Xtuplet	*
8B 8dJ)	24ggLL	.
.	24bb	.
.	24ddJJ)	.
=48	=48	=48
8r	([8aaL	.
8D (8F#L	24aaL]	.
.	24ff#	.
.	24ddJJ	.
8E 8G	24cc#LL	.
.	24dd	.
.	24aJJ	.
8F# 8AJ)	24ccnLL	.
.	24dd	.
.	24aJJ)	.
=49	=49	=49
8r	([8dddL	.
8G (8BL	24dddL]	.
.	24bb	.
.	24ggJJ	.
8A 8c	24ff#LL	.
.	24aa	.
.	24ddJJ	.
8B 8dJ)	24ggLL	.
.	24bb	.
.	24ddJJ)	.
=50	=50	=50
8r	([8aaL	.
8D (8F#L	24aaL]	.
.	24ff#	.
.	24ddJJ	.
8E 8G	24cc#LL	.
.	24dd	.
.	24aJJ	.
8F# 8AJ)	24ccnLL	.
.	24dd	.
.	24aJJ)	.
=51	=51	=51
4G	(>24bLL	.
.	24g	.
.	24bJJ	.
.	24ddLL	.
.	24b	.
.	24ddJJ	.
4r	24ggLL	.
.	24dd	.
.	24ggJJ	.
.	24bbLL	.
.	24gg	.
.	24bbJJ	.
=52	=52	=52
2GG 2BB 2D [2G	24dddLL	.
.	24bb	.
.	24dddJJ	.
.	24fffnLL	.
.	24ddd	.
.	24bbJJ	.
.	24ggLL	.
.	24ffn	.
.	24ddJJ	.
.	24bLL	.
.	24g	.
.	24fnJJ	.
=53	=53	=53
4C 4G]	16eLL)	.
.	(16ee	.
.	16dd#	.
.	16eeJJ	.
4r	16dd#LL	.
.	16ee	.
.	16dd#	.
.	16eeJJ)	.
=54	=54	=54
*^	*^	*
8r	8ryy	(4.g	4.ryy	.
(8B-L	8C#	.	.	.
8Bn	4D	.	.	.
8cnJ)	.	16bLL	8f#	.
.	.	16aJJ)	.	.
*	*	*v	*v	*
=55	=55	=55	=55
*	*	*tuplet	*
4B	4G	(>24bLL	f
.	.	24g	.
.	.	24bJJ	.
.	.	24ddLL	.
.	.	24b	.
.	.	24ddJJ	.
*	*	*Xtuplet	*
4r	4r	24ggLL	.
.	.	24dd	.
.	.	24ggJJ	.
.	.	24bbLL	.
.	.	24gg	.
.	.	24bbJJ	.
*v	*v	*	*
=56	=56	=56
2GG 2BB 2D [2G	24dddLL	.
.	24bb	.
.	24dddJJ	.
.	24fffnLL	.
.	24ddd	.
.	24bbJJ	.
.	24ggLL	.
.	24ffn	.
.	24ddJJ	.
.	24bLL	.
.	24g	.
.	24fnJJ	.
=57	=57	=57
4C 4G]	16eLL)	.
.	(16ee	.
.	16dd#	.
.	16eeJJ	.
4r	16dd#LL	.
.	16ee	.
.	16dd#	.
.	16eeJJ)	.
=58	=58	=58
4C# 4B-	16r	.
.	(16ggLL	.
.	16ff#	.
.	16ggJJ	.
4r	16ff#LL	.
.	16gg	.
.	16ff#	.
.	16ggJJ)	.
=59	=59	=59
!LO:TX:b:i:t=legato	!	!
16DLL	(16ggLL	.
16Bn	16dd)	.
16G	16dd'	.
16BJJ	16dd'JJ	.
16DLL	(16eeLL	.
16B	16dd)	.
16G	16cc	.
16BJJ	16b'JJ	.
=60	=60	=60
16DLL	4b	.
16d	.	.
16G	.	.
16dJJ	.	.
16DLL	(8.aTL	.
16c	.	.
16F#	.	.
16cJJ	32gLL	.
.	32aJJJ	.
*clefG2	*	*
=61	=61	=61
16GLL	8g)	.
16B	.	.
16g	8r	.
16BJJ	.	.
16GLL	(8.ddL	.
16B	.	.
16g	.	.
.	32ff#qq/	.
16BJJ	32eeLL	.
.	32ddJJJ	.
=62	=62	=62
16GLL	8ddd'L)	.
16A	.	.
16f#	8ccc'	.
16AJJ	.	.
16GLL	8bb'	.
16c	.	.
16f#	8aa'J	.
16cJJ	.	.
=63	=63	=63
16GLL	(4gg	.
16B	.	.
16g	.	.
16BJJ	.	.
16GLL	8.ddL	.
16B	.	.
16g	.	.
.	32ff#qq/	.
16BJJ	32eeLL	.
.	32ddJJJ	.
=64	=64	=64
16GLL	8ddd'L)	.
16A	.	.
16f#	8ccc'	.
16AJJ	.	.
16GLL	8bb'	.
16c	.	.
16f#	8aa'J	.
16cJJ	.	.
=65	=65	=65
*	*tuplet	*
16GLL	8gg	.
16B	.	.
16g	8r	.
16BJJ	.	.
.	32ddqq/	.
16GLL	(8.dddL	.
16c	.	.
16f#	.	.
16cJJ	48cccLL	.
.	48bb	.
.	48aaJJJ	.
=66	=66	=66
16GLL	8gg)	.
16B	.	.
16g	8r	.
16BJJ	.	.
.	32ddqq/	.
16GLL	(8.dddL	.
16c	.	.
16f#	.	.
16cJJ	48cccLL	.
.	48bb	.
.	48aaJJJ	.
=67	=67	=67
4B 4g	8gg)	.
.	(16.dLL	.
.	32gJJk	.
*clefF4	*	*
8r	8bL)	.
8D	8c 8aJ	.
=68	=68	=68
8GL	(4c 4a	.
8D	.	.
8GGJ	8B) 8g	.
8r	8r	.
=69:|!|:	=69:|!|:	=69:|!|:
*>B	*>B	*>B
*^	*	*
4d	(8BL	(8ddL	.
.	8G)	8b)	.
8dL	8G'	8b'	.
8dJ	8G'J	8b'tJ	.
.	.	16qaLL>	.
.	.	16qbJJ	.
=70	=70	=70	=70
4d	(8BL	(8ddL	.
.	16AJk)	16ccJk)	.
.	16r	16r	.
4d	4F#	4a	.
=71	=71	=71	=71
4d	(8AL	(8ccL	.
.	16GJk)	16bJk)	.
.	16r	16r	.
4d	(8BL	(8ddL	.
.	16AJk)	16ccJk)	.
.	16r	16r	.
=72	=72	=72	=72
4.d	(4c	(4ee	.
.	8B)	8dd)	.
8r	8ryy	8r	.
*v	*v	*	*
=73	=73	=73
4r	(8ddL>	.
.	8g)	.
(>4BB 4D	(8g	.
.	8g#tJ)	.
.	16qf##LL>	.
.	16qg#JJ	.
=74	=74	=74
4C 4E	(8aL	.
.	16ccJk)	.
.	16r	.
4C# 4G)	4ee	.
=75	=75	=75
*^	*	*
(4B	2D	(8ddL>	.
.	.	16gnJk)	.
.	.	16r	.
4A)	.	(8ccL	.
.	.	16f#Jk)	.
.	.	16r	.
*v	*v	*	*
=76	=76	=76
[4G (4cn	(4a	.
8G] 8B)	8g)	.
8r	8r	.
=77	=77	=77
!LO:TX:b:i:t=legato	!	!
16BLL	(8ddL	.
16d	.	.
16G	8b)	.
16dJJ	.	.
16GLL	8b	.
16d	.	.
16G#	8btJ	.
16dJJ	.	.
.	16qaLL>	.
.	16qbJJ	.
=78	=78	=78
16ALL	(8ddL	.
16d	.	.
16Gn	16ccJk)	.
16dJJ	16r	.
16F#LL	4a	.
16d	.	.
16D	.	.
16dJJ	.	.
*clefG2	*	*
=79	=79	=79
16GLL	(8ccL	.
16g	.	.
16B	16bJk)	.
16gJJ	16r	.
16ALL	(8ddL	.
16g	.	.
16c	16ccJk)	.
16gJJ	16r	.
=80	=80	=80
16cLL	(4ee	.
16g	.	.
16e	.	.
16gJJ	.	.
16BLL	8dd)	.
16g	.	.
16d	8r	.
16gJJ	.	.
=81	=81	=81
16ALL	(8ddL	.
16g	.	.
16c	16ccJk)	.
16gJJ	16r	.
16BLL	(8eeL	.
16g	.	.
16d	16ddJk)	.
16gJJ	16r	.
=82	=82	=82
16dLL	(4ffn	.
16g	.	.
16fn	.	.
16gJJ	.	.
16cLL	8ee)	.
16g	.	.
16e	8r	.
16gJJ	.	.
=83	=83	=83
16BLL	(8eeL	.
16g	.	.
16d	16ddJk)	.
16gJJ	16r	.
16cLL	(8ffL	.
16g	.	.
16e	16eeJk)	.
16gJJ	16r	.
=84	=84	=84
16eLL	(4gg	.
16g	.	.
16f#	.	.
16gJJ	.	.
16dLL	8ff)	.
16g	.	.
16f#	8r	.
16gJJ	.	.
=85	=85	=85
16cLL	(8.eeL	.
16g	.	.
16f#	.	.
16gJJ	32ffLL	.
.	32ggJJJ	.
16BLL	8ffL)	.
16g	.	.
16c	8ee'J	.
16gJJ	.	.
=86	=86	=86
16GLL	4dd	.
16g	.	.
16B	.	.
16gJJ	.	.
16GLL	8r	.
16g	.	.
16B	8gg	.
16gJJ	.	.
=87	=87	=87
16GLL	(8ffL	.
16g	.	.
16c	8ee-J)	.
16gJJ	.	.
16GLL	8r	.
16g	.	.
16e-	8cc	.
16gJJ	.	.
=88	=88	=88
16GLL	(8bL	.
16g	.	.
16d	8ddJ)	.
16gJJ	.	.
16GLL	8r	.
16g	.	.
16B	8gg	.
16gJJ	.	.
=89	=89	=89
16GLL	8r	.
16g	.	.
16c	(16ffLL	.
16gJJ	16ee-JJ)	.
16GLL	8r	.
16g	.	.
16e-	(16ddLL	.
16gJJ	16ccJJ)	.
=90	=90	=90
16GLL	(8bL	.
16g	.	.
16d	8ddJ)	.
16gJJ	.	.
16GLL	16r	.
16g	(16ggLL	.
16B	16ff#	.
16gJJ	16ggJJ)	.
=91	=91	=91
16A-LL	16r	.
16g	(16ee-LL	.
16c	16dd	.
16gJJ	16ee-JJ)	.
16A-LL	16r	.
16f#	(16ccLL	.
16c	16b	.
16f#JJ	16ccJJ)	.
=92	=92	=92
8G 8g	(8bL	.
8r	16ddJk)	.
.	16r	.
8G 8g	(8bL	.
8r	16ddJk)	.
.	16r	.
=93	=93	=93
8G 8g	(8bL	.
8r	16ddJk)	.
.	16r	.
4r	4r	.
=94	=94	=94
8G 8B 8d 8fn	(8ddL	.
8r	16ffnJk)	.
.	16r	.
8G 8B 8d 8f	(8ddL	.
8r	16ffJk)	.
.	16r	.
=95	=95	=95
8G 8B 8d 8f	(8ddL	.
8r	16ffJk)	.
.	16r	.
4r	4r	.
=96	=96	=96
*clefF4	*	*
8r	(8.eenL	.
8CL	.	.
.	32ffLL	.
.	32ggJJJ	.
8E	8ccL)	.
8GJ	8b' 8dd'J	.
=97	=97	=97
*	*^	*
8cL	(8ddL	8bL	.
8CJ	16ffL	8ccJ	.
.	16eeJJ	.	.
8GL	4ryy	4b 4dd)	.
8GGJ	.	.	.
*	*v	*v	*
=98	=98	=98
8r	(8.eeL	.
8CL	.	.
.	32ffLL	.
.	32ggJJJ	.
8E	8ccL)	.
8GJ	8b' 8dd'J	.
=99	=99	=99
8cL	8dd (8ffL	.
8CJ	8cc 8eetJ)	.
8GL	4b 4dd	.
8GGJ	.	.
=100	=100	=100
(8AL	(8.ffL	.
8c	.	.
.	32ggLL	.
.	32ffJJJ	.
8G	8eeL)	.
8cJ	8ee'J	.
=101	=101	=101
8FL	(8.aaL	.
8c	.	.
.	32bbLL	.
.	32cccJJJ	.
8E	8ggL)	.
8cJ)	8gg'J	.
*clefG2	*	*
=102	=102	=102
8r	(16ggLL	.
.	16ff)	.
8B 8g	(16ff	.
.	16ddJJ	.
8r	(16ffLL)	.
.	16ee)	.
8c 8g	(16ee	.
.	16ccJJ)	.
*clefF4	*	*
=103	=103	=103
4G 4B	(16cc#LL	.
.	16dd	.
.	16ee	.
.	16ddJJ	.
4r	16ccnLL<	.
.	16b	.
.	16a	.
.	16gJJ)	.
=104	=104	=104
(>16CCLL	(8.eeL	.
16EE	.	.
16GG	.	.
16CJJ	32ffLL	.
.	32ggJJJ	.
16EELL	8ccL)	.
16E	.	.
16GG	8b' 8dd'J	.
16GJJ	.	.
=105	=105	=105
*	*^	*
16CLL	(8ddL	8bL	.
16E	.	.	.
16G	16ffL	8ccJ	.
16cJJ	16eeJJ)	.	.
16GGLL	4ryy	4b 4dd	.
16BB	.	.	.
16D	.	.	.
16GJJ)	.	.	.
*	*v	*v	*
=106	=106	=106
(>16CCLL	(8.eeL	.
16EE	.	.
16GG	.	.
16CJJ	32ffLL	.
.	32ggJJJ	.
16EELL	8ccL)	.
16E	.	.
16GG	8b' 8dd'J	.
16GJJ	.	.
=107	=107	=107
16CLL	(8dd 8ffL	.
16E	.	.
16G	8cc 8eetJ)	.
16cJJ	.	.
16GGLL	4b 4dd	.
16BB	.	.
16D	.	.
16GJJ)	.	.
=108	=108	=108
(16ALL	(8.ffL	.
16c	.	.
16A	.	.
16cJJ	32ggLL	.
.	32ffJJJ	.
16GLL	8eeL)	.
16c	.	.
16G	8ee'J	.
16cJJ	.	.
=109	=109	=109
16FLL	(8.aaL	.
16c	.	.
16F	.	.
16cJJ	32bbLL	.
.	32cccJJJ	.
16ELL	8ggL)	.
16c	.	.
16E	8gg'J	.
16cJJ)	.	.
=110	=110	=110
*^	*	*
8r	8ryy	(16gg#LL	.
.	.	16aa	.
(8d	8F	16ff	.
.	.	16ddJJ	.
8eL	4G	8ccL	.
8dJ)	.	8bJ)	.
*v	*v	*	*
=111	=111	=111
!	!LO:TX:b:i:t=legato	!
4c 4e	24ccLL	.
.	24g	.
.	24eeJJ	.
.	24ccLL	.
.	24gg	.
.	24eeJJ	.
*	*Xtuplet	*
4r	24cccLL	.
.	24bb	.
.	24aaJJ	.
.	24ggLL	.
.	24ff	.
.	24eeJJ	.
=112	=112	=112
*^	*	*
8r	8ryy	24cc#LL	.
.	.	24dd	.
.	.	24ffJJ	.
8A 8d	8F	24aaLL	.
.	.	24ff	.
.	.	24ddJJ	.
8c (8eL	4G	24ggLL	.
.	.	24ee	.
.	.	24ccnJJ	.
8d 8fJ)	.	24ffLL	.
.	.	24dd	.
.	.	24bJJ	.
*v	*v	*	*
=113	=113	=113
4c 4e	24ccLL	.
.	24g	.
.	24eeJJ	.
.	24ccLL	.
.	24gg	.
.	24eeJJ	.
4r	24cccLL	.
.	24bb	.
.	24aaJJ	.
.	24ggLL	.
.	24ff	.
.	24eeJJ	.
=114	=114	=114
*^	*	*
8r	8ryy	24cc#LL	.
.	.	24dd	.
.	.	24ffJJ	.
8A 8d	8F	24aaLL	.
.	.	24ff	.
.	.	24ddJJ	.
8c (8eL	4G	24ggLL	.
.	.	24ee	.
.	.	24ccnJJ	.
8dJ)	.	24ffLL	.
.	.	24dd	.
.	.	24bJJ	.
*v	*v	*	*
=115	=115	=115
8c 8eL	8ccL	.
8G'J	8g'J	.
4CC 4C	4c	.
*clefG2	*	*
=116	=116	=116
!LO:TX:b:i:t=legato	!	!
16cLL	(4.ee	.
16g	.	.
16f#	.	.
16gJJ	.	.
16cLL	.	.
16g	.	.
.	32ffqLLL>	.
.	32eeq	.
.	32ddq	.
.	32eeqJJJ	.
16d	16ggLL	.
16gJJ	16ffJJ	.
=117	=117	=117
16eLL	16eeLL	.
16g	16dd	.
16fn	16cc	.
16gJJ	16bJJ	.
16eLL	8ccL)	.
16g	.	.
16A#	8cc#'J	.
16gJJ	.	.
=118	=118	=118
16BLL	8dd'L	.
16g	.	.
16B	8dd#'	.
16gJJ	.	.
16cLL	8ee'J	.
16g	.	.
16d	(16ggLL	.
16gJJ	16ffJJ)	.
=119	=119	=119
16cLL	(8.eeL	.
16g	.	.
16f#	.	.
16gJJ	32ffLL	.
.	32eeJJJ	.
16BLL	8ddn)	.
16g	.	.
16f#	8r	.
16gJJ	.	.
=120	=120	=120
16BLL	(4.ff	.
16g	.	.
16f#	.	.
16gJJ	.	.
16BLL	.	.
16g	.	.
.	32ggqLL>	.
.	32ffq	.
.	32eeq	.
.	32ffqJJ	.
16c	16aaLL	.
16gJJ	16ggJJ	.
=121	=121	=121
16dLL	16ffLL	.
16g	16ee	.
16e	16dd	.
16gJJ	16ccJJ	.
16fnLL	16bLL)	.
16g	16cc'	.
16d	16dd'	.
16gJJ	16ee'JJ	.
=122	=122	=122
16BLL	16ff'LL	.
16g	16gg'	.
16d	16aa'	.
16gJJ	16bb'JJ	.
16BLL	16ccc'LL	.
16g	16ddd'	.
16G	16eee'	.
16gJJ	16fff'JJ	.
=123	=123	=123
16cLL	(4ddd#	.
16g	.	.
16e	.	.
16gJJ	.	.
16cLL	8eee)	.
16g	.	.
16e	8r	.
16gJJ	.	.
*clefF4	*	*
=124	=124	=124
*	*tuplet	*
(24CLL	([8b-L	.
24E	.	.
24GJ	.	.
8cJ)	24b-L]	.
.	24ee	.
.	24ggJJ	.
4r	24bb-LL	.
.	24gg	.
.	24eeJJ	.
.	24ggLL	.
.	24ee	.
.	24b-JJ)	.
=125	=125	=125
*	*Xtuplet	*
(24FFLL	([8aL	.
24AA	.	.
24CJ	.	.
8FJ)	24aL]	.
.	24cc	.
.	24ffJJ	.
4r	24aaLL	.
.	24ff	.
.	24ccJJ	.
.	24ffLL	.
.	24cc	.
.	24aJJ)	.
=126	=126	=126
*Xtuplet	*	*
(24AALL	([8gL	.
24C#	.	.
24EJ	.	.
8AJ)	24gL]	.
.	24cc#	.
.	24eeJJ	.
4r	24ggLL	.
.	24ee	.
.	24cc#JJ	.
.	24eeLL	.
.	24cc#	.
.	24gJJ)	.
=127	=127	=127
(24DLL	([8f#L<	.
24F#	.	.
24AJ	.	.
8dJ)	24f#L]	.
.	24a	.
.	24ddJJ	.
4r	24ff#LL	.
.	24dd	.
.	24aJJ	.
.	24ddLL<	.
.	24a)	.
.	24f#JJ	.
=128	=128	=128
(24BBLL	([8fnL<	.
24D	.	.
24GJ	.	.
8BJ)	24fL]	.
.	24b	.
.	24ddJJ	.
4r	24ffnLL	.
.	24dd	.
.	24bJJ	.
.	24ddLL<	.
.	24b	.
.	24fJJ)	.
=129	=129	=129
(24CLL	([8eL	.
24E	.	.
24GJ	.	.
8cJ)	24eL]	.
.	24g	.
.	24ccJJ	.
4r	24eeLL>	.
.	24cc	.
.	24gJJ	.
.	24ccLL	.
.	24g	.
.	24eJJ)	.
=130	=130	=130
8F 8A	24r	.
.	(24dLL	.
.	24aJJ	.
8r	24ddLL	.
.	24a	.
.	24dJJ)	.
8F# 8A	24r	.
.	(24dLL	.
.	24aJJ	.
8r	24ccLL	.
.	24a	.
.	24dJJ)	.
*clefG2	*	*
=131	=131	=131
(16GLL	4b	.
16g	.	.
16f#	.	.
16gJJ	.	.
16f#LL	16r	.
16g	16gg'LL	.
16fn	16aa'	.
16gJJ	16bb'JJ	.
=132	=132	=132
16eLL	([4ccc	.
16g	.	.
16c	.	.
16gJJ	.	.
16eLL	16cccLL]	.
16g	16bb	.
16c	16aa	.
16gJJ	16ggJJ	.
=133	=133	=133
16dLL	16ggLL	.
16g	16ff	.
16c	16ee	.
16gJJ	16ddJJ	.
16BLL	8gg'L)	.
16g	.	.
16G	8ff'J	.
16gJJ)	.	.
=134	=134	=134
(16cLL	(8dd#L	.
16g	.	.
16f#	8eeJ)	.
16gJJ	.	.
16f#LL	4r	.
16g	.	.
16a	.	.
16gJJ	.	.
=135	=135	=135
16fnLL	8r	.
16g	.	.
16e	16r	.
16gJJ	16gg'	.
16fLL	16aa-'LL	.
16g	16aan'	.
16c	16bb-'	.
16gJJ)	16bbn'JJ	.
=136	=136	=136
(16eLL	([4ccc	.
16g	.	.
16c	.	.
16gJJ	.	.
16eLL	16cccLL]	.
16g	16bb	.
16c	16aa	.
16gJJ	16ggJJ)	.
=137	=137	=137
16dLL	(16ggLL	.
16g	16ff	.
16c	16ee	.
16gJJ	16ddJJ	.
16BLL	8gg'L)	.
16g	.	.
16G	8ff'J	.
16gJJ)	.	.
=138	=138	=138
!LO:TX:b:i:t=legato	!	!
16cLL	8ee'	.
16g	.	.
16e	8r	.
16gJJ	.	.
16cLL	(16.aaTLL	.
16a	.	.
.	32bbk	.
16f	16ccc)	.
16aJJ	16ccc'JJ	.
=139	=139	=139
16cLL	8ccc	.
16g	.	.
16e	8r	.
16gJJ	.	.
16B-LL	(16.dddTLL	.
16f	.	.
.	32eeek	.
16d	16fff)	.
16fJJ	16fff'JJ	.
=140	=140	=140
16ALL	8fff	.
16f	.	.
16c	8r	.
16fJJ	.	.
*clefF4	*	*
16FLL	(16.ffTLL	.
16d	.	.
.	32ggk	.
16A	16aa)	.
16dJJ	16aa'JJ	.
=141	=141	=141
16GLL	(16aaLL	.
16e	16gg)	.
16c	16ff'	.
16eJJ	16ee'JJ	.
16GLL	8dd'L	.
16f	.	.
16Bn	8gg'J	.
16fJJ	.	.
=142	=142	=142
16CLL	(8ffL	.
16G	.	.
16E	8eeJ)	.
16GJJ	.	.
16CLL	(16.aTLL	.
16A	.	.
.	32bk	.
16F	16cc)	.
16AJJ	16cc'JJ	.
=143	=143	=143
16CLL	8cc	.
16G	.	.
16E	8r	.
16GJJ	.	.
16BB-LL	(16.ddTLL	.
16F	.	.
.	32eek	.
16D	16ff)	.
16FJJ	16ff'JJ	.
=144	=144	=144
16AALL	8ff	.
16F	.	.
16C	8r	.
16FJJ	.	.
16FFLL	(16.ffTLL	.
16D	.	.
.	32ggk	.
16AA	16aa)	.
16DJJ	16aaJJ	.
=145	=145	=145
16GGLL	(16aaLL	.
16E	16gg)	.
16C	16ff'	.
16EJJ	16ee'JJ	.
16GGLL>	(16eeLL	.
16F	16dd)	.
16D	16cc'	.
16FJJ	16b'JJ	.
=146	=146	=146
*	*tuplet	*
8r	([8ggL	.
8C (8EL	24ggL]	.
.	24ee	.
.	24ccJJ	.
8D 8F	24bLL	.
.	24dd	.
.	24gJJ	.
8E 8GJ)	24ccLL	.
.	24ee	.
.	24gJJ)	.
*	*Xtuplet	*
=147	=147	=147
8r	([8ddL	.
(8GG 8BBL	24ddL]	.
.	24b	.
.	24gJJ	.
8AA 8C	24f#LL	.
.	24g	.
.	24dJJ	.
8BB) 8DJ	24fnLL	.
.	24g	.
.	24dJJ)	.
=148	=148	=148
8r	([8ggL	.
8C (8EL	24ggL]	.
.	24ee	.
.	24ccJJ	.
8D 8F	24bLL	.
.	24dd	.
.	24gJJ	.
8E 8GJ)	24ccLL	.
.	24ee	.
.	24gJJ)	.
=149	=149	=149
8r	([8ddL	.
(8GG 8BBL	24ddL]	.
.	24b	.
.	24gJJ	.
8AA 8C	24f#LL	.
.	24g	.
.	24dJJ	.
8BB) 8DJ	24fnLL	.
.	24g	.
.	24dJJ)	.
=150	=150	=150
4C	(>24eLL	.
.	24c	.
.	24eJJ	.
.	24gLL	.
.	24e	.
.	24gJJ	.
4r	24ccLL	.
.	24g	.
.	24ccJJ	.
.	24eeLL	.
.	24cc	.
.	24eeJJ	.
=151	=151	=151
*^	*	*
*	*^	*	*
4.G	2C	[>2c/	24ggLL	.
.	.	.	24ee	.
.	.	.	24ggJJ	.
.	.	.	24bb-LL	.
.	.	.	24gg	.
.	.	.	24eeJJ	.
.	.	.	24ccLL	.
.	.	.	24b-	.
.	.	.	24gJJ	.
8B-	.	.	24ccLL	.
.	.	.	24b-	.
.	.	.	24g#JJ	.
*v	*v	*v	*	*
=152	=152	=152
4F 4A 4c]	16aLL)	.
.	(16aa	.
.	16gg#	.
.	16aaJJ	.
4r	16gg#LL	.
.	16aa	.
.	16gg#	.
.	16aaJJ)	.
=153	=153	=153
*^	*^	*
8r	8ryy	(4.cc\	4.ryy	.
(8e-L	8F#	.	.	.
8en	4G	.	.	.
8fnJ)	.	16eeLL	8bn	.
.	.	16ddJJ)	.	.
*v	*v	*	*	*
*	*v	*v	*
=154	=154	=154
*	*tuplet	*
4c 4e	(24ccLL	.
.	24g	.
.	24ccJJ	<
.	24eeLL	(
.	24cc	(
.	24eeJJ	(
*	*Xtuplet	*
4r	24ggLL	(
.	24ee	(
.	24ggJJ	(
.	24cccLL	(
.	24ddd	(
.	24cccJJ	[
=155	=155	=155
*^	*	*
*	*^	*	*
4.G	2C	[>2c/	24bb-LL	.
.	.	.	24aa	.
.	.	.	24ggJJ	.
.	.	.	24ffLL	.
.	.	.	24ee	.
.	.	.	24ddJJ	.
.	.	.	24ccLL	.
.	.	.	24dd	.
.	.	.	24ccJJ	.
8B-	.	.	24b-LL	.
.	.	.	24a	.
.	.	.	24g#JJ	.
*v	*v	*v	*	*
=156	=156	=156
4F 4A 4c]	16aLL)	.
.	(16aa	.
.	16gg#	.
.	16aaJJ	.
4r	16gg#LL	.
.	16aa	.
.	16gg#	.
.	16aaJJ)	.
=157	=157	=157
4F# 4e-	16r	.
.	(16cccLL	.
.	16bbn	.
.	16cccJJ	.
4r	16bbLL	.
.	16ccc	.
.	16bb	.
.	16cccJJ)	.
*clefG2	*	*
=158	=158	=158
!LO:TX:a:i:t=legato	!	!
16GLL	(16cccLL	.
16en	16gg)	.
16c	16gg'	.
16eJJ	16gg'JJ	.
16GLL	(16aaLL	.
16e	16gg	.
16c	16ff')	.
16eJJ	16ee'JJ	.
=159	=159	=159
16GLL	(4ee	.
16g	.	.
16c	.	.
16gJJ	.	.
16GLL	8.ddTL	.
16f	.	.
16B	.	.
16fJJ	32ccLL	.
.	32ddJJJ	.
*clefF4	*	*
=160	=160	=160
16CLL	8cc)	p
16E	.	.
16c	8r	.
16EJJ	.	.
16CLL	(>8.gL	.
16E	.	.
16c	.	.
.	b8q/	.
16EJJ	32aLL	.
.	32gJJJ	.
=161	=161	=161
16CLL	8gg'L)	.
16D	.	.
16B	8ff'	.
16DJJ	.	.
16CLL	8ee'	.
16F	.	.
16B	8dd'J	.
16FJJ	.	.
=162	=162	=162
16CLL	(4cc	.
16E	.	.
16c	.	.
16EJJ	.	.
16CLL	8.gL	.
16E	.	.
16c	.	.
.	16bqq/	.
16EJJ	32aLL	.
.	32gJJJ	.
=163	=163	=163
16CLL	8gg'L)	.
16D	.	.
16B	8ff'	.
16DJJ	.	.
16CLL	8ee'	.
16F	.	.
16B	8dd'J	.
16FJJ	.	.
=164	=164	=164
*	*tuplet	*
16CLL	8cc	.
16E	.	.
16c	8r	.
16EJJ	.	.
.	32gqq/	.
16CLL	(8.ggL	mfp
16F	.	.
16B	.	.
16FJJ	48ffLL	.
.	48ee	.
.	48ddJJJ	.
=165	=165	=165
16CLL	8cc)	.
16E	.	.
16c	8r	.
16EJJ	.	.
.	(>32gqq/	.
16CLL	(8.ggL)	mfp
16F	.	.
16B	.	.
16FJJ	32aaLL	.
.	32bbJJJ	.
=166	=166	=166
16CLL	8ccc)	.
16E	.	.
16c	8r	.
16EJJ	.	.
16CLL	(24ggLL	.
.	24aa	.
16F	.	.
.	24ggJJ	.
16B	24ffLL	.
.	24ee	.
16FJJ	.	.
.	24ddJJ	.
=167	=167	=167
16CLL	8cc)	.
16E	.	.
16c	8r	.
16EJJ	.	.
16CLL	(24ff#LL	.
.	24gg	.
16F	.	.
.	24gg#JJ	.
16B	24aaLL	.
.	24bb-	.
16FJJ	.	.
.	24bbnJJ	.
=168	=168	=168
*^	*	*
4E	4C	8ccc)	.
.	.	(16.gLL	p
.	.	32ccJJk	.
4ryy	8r	8eeL)	.
.	8G#	8f 8ddJ	.
*v	*v	*	*
=169	=169	=169
4.A	(4f (4dd	.
.	8e) 8cc)	.
8r	8r	.
=170	=170	=170
8FF 8F	8a 8dd 8ff 8aa	f
8r	8r	.
8GGn 8Gn	8d 8f 8g 8b	.
8r	8r	.
=171	=171	=171
8CC 8EE 8GG 8C	8c 8e 8g 8cc	.
8r	8r	.
4r	4r	.
==:|!	==:|!	==:|!
*-	*-	*-
!!!RDF**kern: < = below
!!!RDF**kern: > = above
!!!SMS: Alte Mozart-Ausgabe, Band 20, Breitkopf &amp; H&auml;rtel 1877-1883.
!!!ONB: Stich und Druck von Breitkopf &amp; H&auml;rtel in Leipzig
!!!ONB: Ausgegeben 1878
!!!ENC: Craig Stuart Sapp
!!!END: 2009/10/08/
!!!EEV: 2017/01/21/
!!!title: @{OTL}, K 330 (300h), @{OMV}
!!!hum2abc: --no-tempo -s 0.65 --spacing 2.0 -p "%gracespace  0 6.0 12.0"
